assets/components_previews/overlay/dark/tooltip.svg

<svg xmlns="http://www.w3.org/2000/svg" width="320" height="232" fill="none" viewBox="0 0 320 232"><g fill="#0E0F10" filter="url(#a)"><path d="M70 108c0-6.627 5.373-12 12-12h156c6.627 0 12 5.373 12 12v16c0 6.627-5.373 12-12 12H82c-6.627 0-12-5.373-12-12zm88.336 37.504a2 2 0 0 0 3.328 0L168 136h-16z"/></g><rect width="132" height="10" x="94" y="111" fill="#2F1C78" rx="5"/><defs><filter id="a" width="220" height="90.394" x="50" y="88" color-interpolation-filters="sRGB" filterUnits="userSpaceOnUse"><feFlood flood-opacity="0" result="BackgroundImageFix"/><feColorMatrix in="SourceAlpha" result="hardAlpha" values="0 0 0 0 0 0 0 0 0 0 0 0 0 0 0 0 0 0 127 0"/><feOffset dy="12"/><feGaussianBlur stdDeviation="10"/><feComposite in2="hardAlpha" operator="out"/><feColorMatrix values="0 0 0 0 0 0 0 0 0 0 0 0 0 0 0 0 0 0 0.03 0"/><feBlend in2="BackgroundImageFix" result="effect1_dropShadow_10186_25082"/><feColorMatrix in="SourceAlpha" result="hardAlpha" values="0 0 0 0 0 0 0 0 0 0 0 0 0 0 0 0 0 0 127 0"/><feOffset dy="2"/><feGaussianBlur stdDeviation="3"/><feComposite in2="hardAlpha" operator="out"/><feColorMatrix values="0 0 0 0 0 0 0 0 0 0 0 0 0 0 0 0 0 0 0.05 0"/><feBlend in2="effect1_dropShadow_10186_25082" result="effect2_dropShadow_10186_25082"/><feBlend in="SourceGraphic" in2="effect2_dropShadow_10186_25082" result="shape"/></filter></defs></svg>

<svg width="320" height="232" viewBox="0 0 320 232" fill="none" xmlns="http://www.w3.org/2000/svg">
<g filter="url(#filter0_dd_10186_25082)">
<path d="M70 108C70 101.373 75.3726 96 82 96H238C244.627 96 250 101.373 250 108V124C250 130.627 244.627 136 238 136H168H152H82C75.3726 136 70 130.627 70 124V108Z" fill="#0E0F10"/>
<path d="M158.336 145.504C159.128 146.691 160.872 146.691 161.664 145.504L168 136H152L158.336 145.504Z" fill="#0E0F10"/>
</g>
<rect x="94" y="111" width="132" height="10" rx="5" fill="#2F1C78"/>
<defs>
<filter id="filter0_dd_10186_25082" x="50" y="88" width="220" height="90.3944" filterUnits="userSpaceOnUse" color-interpolation-filters="sRGB">
<feFlood flood-opacity="0" result="BackgroundImageFix"/>
<feColorMatrix in="SourceAlpha" type="matrix" values="0 0 0 0 0 0 0 0 0 0 0 0 0 0 0 0 0 0 127 0" result="hardAlpha"/>
<feOffset dy="12"/>
<feGaussianBlur stdDeviation="10"/>
<feComposite in2="hardAlpha" operator="out"/>
<feColorMatrix type="matrix" values="0 0 0 0 0 0 0 0 0 0 0 0 0 0 0 0 0 0 0.03 0"/>
<feBlend mode="normal" in2="BackgroundImageFix" result="effect1_dropShadow_10186_25082"/>
<feColorMatrix in="SourceAlpha" type="matrix" values="0 0 0 0 0 0 0 0 0 0 0 0 0 0 0 0 0 0 127 0" result="hardAlpha"/>
<feOffset dy="2"/>
<feGaussianBlur stdDeviation="3"/>
<feComposite in2="hardAlpha" operator="out"/>
<feColorMatrix type="matrix" values="0 0 0 0 0 0 0 0 0 0 0 0 0 0 0 0 0 0 0.05 0"/>
<feBlend mode="normal" in2="effect1_dropShadow_10186_25082" result="effect2_dropShadow_10186_25082"/>
<feBlend mode="normal" in="SourceGraphic" in2="effect2_dropShadow_10186_25082" result="shape"/>
</filter>
</defs>
</svg>
